packages/bezier-icons/icons/info.svg

<svg width="24" height="24" viewBox="0 0 24 24" fill="none" xmlns="http://www.w3.org/2000/svg">
<path fill-rule="evenodd" clip-rule="evenodd" d="M12.0002 2.00011C17.5228 2.00011 22.0002 6.47715 22.0002 12.0001C22.0002 17.5231 17.5228 22.0001 12.0002 22.0001C6.47693 22.0001 2.00021 17.5234 2.00021 12.0001C2.00021 6.47682 6.47693 2.00011 12.0002 2.00011ZM12.0002 20.0001C16.4183 20.0001 20.0002 16.4185 20.0002 12.0001C20.0002 7.58175 16.4183 4.00011 12.0002 4.00011C7.5815 4.00011 4.00021 7.58139 4.00021 12.0001C4.00021 16.4188 7.5815 20.0001 12.0002 20.0001ZM12.0002 6.00011C12.8292 6.00011 13.5002 6.67111 13.5002 7.50011C13.5002 8.32811 12.8292 9.00011 12.0002 9.00011C11.1712 9.00011 10.5002 8.32811 10.5002 7.50011C10.5002 6.67111 11.1712 6.00011 12.0002 6.00011ZM13 18H11V10H13V18Z" fill="#313234"/>
</svg>

<svg xmlns="http://www.w3.org/2000/svg" width="24" height="24" fill="none" viewBox="0 0 24 24"><path fill="#313234" fill-rule="evenodd" d="M12 2c5.523 0 10 4.477 10 10s-4.477 10-10 10S2 17.523 2 12 6.477 2 12 2m0 18a8 8 0 1 0 0-16 8 8 0 0 0 0 16m0-14A1.5 1.5 0 1 1 12.002 9 1.5 1.5 0 0 1 12 6m1 12h-2v-8h2z" clip-rule="evenodd"/></svg>
